X:7560
%16625
T:The Dancing Dustman
% Nottingham Music Database
S:Jimmy Shand, via Phil Rowe
M:6/8
K:Cmaj
AB|"C"dcG E2F|AGE C2E|"Dm"DCD F2D|A,3 -A,2C|"G"B,DF B2A|
"G"G2F E2^D|"C"E^DE A2E|"G"G3 -GAB|"C"dcG E2F|AGE C2E|
"Dm"DCD F2D|A,3 -A,2C|"G"B,DF B2A|"G7"G2F E2D|A,^A,B, E2D|"C"C6||
"C"G2C CDE|D2C G3|"Dm"A2D DEF|E2D A3|"G"B2F FGA|
"G"B2B B3|"Am"A2
